X:2301
L:1/8
M:2/4
K:G
 B/c/ |:"D7" BA dA/B/ |"G" AG dg/g/ |"D7" ff ee |"G" ed BB/c/ |"D7" BA dA/B/ |"G" AG dd/B/ | 
"A7" Af e^c |1"D" dd dB/c/ :|2"D" dd dd |:"G" gf/e/ de/B/ |"D7" cF FA | fe/d/ cd/A/ |"G" BG Gd | 
 ba/g/ dg/f/ |"Am" ea aa/g/ |"D7" fc ed |1"G" dB Bd :|2"G" gg g z ::[K:C]"G7" f>g fd |"C" e>f ec | 
"G7" B/c/d/e/ fa |"C" e/f/g/a/ ge |"G7" fg f>d |"C" eg eg/e/ |"D7" db a>^f |"G" gg g z :: 
"C" ge/f/ ge |"G7" fa Bd/e/ | fa BA/B/ |"C" ce ge/f/ | ge/f/ ge |"G7" fa dd/e/ | fa b>g | 
"C" cc c z :|

